X: 1
T: Mickey Doherty's
M: 4/4
L: 1/8
K: D maj
A |: d2 fa gfed | cA A/A/A cdec | defa gfed |1 cA A/B/c dABc:|
|2 cA A/B/c d2 D/D/D ||
K: Dmix
|: EGAB cAGE | D2 F/E/D ADFD | E/F/G AB cAGB | cdBA GFED |
| E/F/G AB cAGE | D2 F/E/D ADFD |E/F/G AB cAGB |1 cdBA G3 D :|2 cdBA G3 A ||
